X:1
T:Auld Lang Syne
C:Traditional
O:Scotland
M:4/4
L:1/8
K:D
A2 | d3 d e2 f2 | A3 B A3 A | d2 f2 e2 d2 | B6 d2 |
A3 F E2 D2 | E3 D E3 F | A3 A B2 A2 | A6 A2 |
d3 d e2 f2 | A3 B A3 A | d2 f2 e2 d2 | B6 d2 |
A3 F E2 D2 | E3 D E3 F | A4 BA FE | D6 |]
